X:493
T:Csillagom, reveszem
T:My star, my ferryman
Z:Jack Campin, http://www.campin.me.uk/
F:Jack Campin's Nine-Note Tunebook
% last edit 03-02-2013
B:Balint Sarosi: Gypsy Music
S:Kodaly and Vargyas, 1960
M:4/4
L:1/8
Q:1/4=60
K:EMin
(3A2A2B2 (3c2c2B2|AcBA EE3 |\
(3A2A2B2 (3c2c2B2|AcBA EE3 |
  EDED     EF G2 |FDED EFG2|\
  A2c2     B2 A2 |G4  =F4  |E8|]

